X: 3991
T: Blackthorn Stick, The
R: jig
M: 6/8
K: Gmajor
|:d|g2 g ege|dBG AGE|D2 G A^GA|BG/A/B AGE|
gfg e/f/ge|dBG AGE|DEG A^GA|BGG G2:|
|:d|edd gdd|edd gdB|def gfg|edB A3|
[1 g2 g ege|dBG AGE|DGG AcA|BGG G2:|
[2 gfg a^ga|bge edB|G2 G A/B/cA|BG/G/G G2||

